X:1
T:Title
%%score { ( 1 4 5 ) | ( 2 3 ) }
L:1/8
Q:1/4=110
M:4/4
K:Eb
V:1 treble nm="Grand Piano"
V:4 treble 
V:5 treble 
V:2 bass 
V:3 bass 
V:1
 [GB]2 [GB]2 [B,GB]2 [EGB]2 | [EAB]4 [DAB]4 | F2 F2 B3 A | G8 | E2 G2 B2 e2 | e4 z4 | =A2 B2 d3 c | %7
w: Arthur~S.~Sullivan * * *|||||||
 [DB]8 | [FB]2 F2 G2 A2 | B3 c B4 | [=Ec]2 [EG]2 [FA]2 [GB]2 | [CFA]8 | %12
w: |||||
 [B,FA]2 [B,DF]2 [B,EG]2 [CF=A]2 | F3- [Fc] d4 | [Ge]2 [DB]c d2 c2 | D2 E2 F2 A2 | %16
w: ||||
 [B,GB]2 [B,GB]2 [B,GB]2 FE | B4[K:bass][K:treble] B4 | c2 c2 c2 [Fd][Ge] | [Fd]6 c2 | %20
w: ||||
 B2 B2 [FB]2 cd | e4 G4 | F2 GA z2 z F | E8 |] %24
w: ||||
V:2
 E,2 [E,G,]2 E,2 E,2 | z2 z[K:treble] c[K:bass] B,,4 | [A,B,D]2 [A,B,D]2 [G,B,E]3 [F,B,D] | %3
 [E,B,E]8 | [G,B,]2 [G,B,E]2 [G,B,E]2 [G,B,E]2 | [F,B,F]4 [F,B,F]4 | %6
 [F,CE]2 [F,B,D]2 [F,=A,F]3 [F,A,E] | [B,,B,]8 | [D,B,]2 [A,B,D]2 [G,B,E]2 [F,A,E]2 | %9
 [E,E]3- [E,A,E] [E,G,E]4 | [C,G,]2 [C,C]2 [C,C]2 [C,C]2 | F,6 E,2 | D,2 B,,2 E,2 E,2 | %13
 D,3 [F,=A,] [B,F]4 | [E,B,]2 z E [F,B,F]2 [F,=A,E]2 | B,,2 C,2 D,2 E,2 | E,2 B,,2 E,2 G,2 | %17
 [A,D]4 z4 | [A,E]2 [G,B,=E]2 [F,A,F]2 [E,B,]2 | B,6 z2 | [E,G,E]2 [E,G,E]2 [D,A,]2 [F,A,F]2 | %21
 [G,B,E]4 [E,B,E]4 | [A,CE]2 [F,CE]2 B,2 z D | [E,G,]8 |] %24
V:3
 x8 | F,4[K:treble][K:bass] z4 | x8 | x8 | x8 | x8 | x8 | x8 | x8 | G,4 z4 | x8 | x8 | x8 | x8 | %14
 z2 [G,B,]2 z4 | x8 | x8 | F,2 z2 [F,A,D]2 [G,B,]2 | x8 | B,,6- [B,,A,E]2 | x8 | x8 | z4 z2 B,,2 | %23
 x8 |] %24
V:4
 x8 | x8 | x8 | x8 | x8 | z2 z C d4 | x8 | x8 | x8 | x8 | x8 | x8 | x8 | [B,B]4 z4 | x8 | [B,B]8 | %16
 z4 z2 [B,B]2 | z2[K:bass] z[K:treble] c z2 E2 | x8 | x8 | x8 | x8 | z4 [DG]4 | x8 |] %24
V:5
 x8 | x8 | x8 | x8 | x8 | x8 | x8 | x8 | x8 | x8 | x8 | x8 | x8 | x8 | x8 | x8 | x8 | %17
 z2[K:bass] B,,2[K:treble] z4 | x8 | x8 | x8 | x8 | z4 z2 A,2 | x8 |] %24

